X:1
T:James Gibb editions
T:Cantantibus organis - Ravanello
T:#
%%score [ 1 2 3 ]
L:1/8
Q:1/4=66
M:4/4
K:G
V:1 treble nm="Soprano I"
V:2 treble nm="Soprano II"
V:3 treble nm="Alto I" snm="A"
V:1
"^dolce""^Cantantibus organis, op.66/24""^Oreste Ravanello\n (1871-1938)" z2 | z8 | z4 z2!p! B2 | %3
w: ||Can-|
 d3 d"^," B2 (e2- | edcB c3) c |"^," B2 B2 e2 dd |[M:4/4] c3 c"^," B2 B2 | (A2 d4) c2 | %8
w: tan- ti- bus or\-|* * * * * ga-|nis, can- tan- ti- bus|or- ga- nis Cae-|ci\- * li-|
"^," B2 B2 e3 e |"^," ^d2 (d2 e2) f2 |"^," g2 g4 f2 |"^dolcissimo" (e4- edBd | c4- c"^,"B BA/G/ | %13
w: a, Cae- ci- li-|a Do\- * mi-|no de- can-|ta\- * * * *||
 A6) G2 | G4 !fermata!F4 |!pp! G4 B2 B2 |!<(! (e6 d2!<)! | ^c3 d)"^," e2 e2 | %18
w: * bat,|di- cens:|Fi- at cor|me\- *|* * um im-|
 g2!>(! f2 (e3 d)!>)! |"^," ^c2"^con slancio" c2 e2 d2 |!f! (g4 f4 | e8- |"^," e2 ^d2 e4- | %23
w: ma- cu- la\- *|tum, im- ma- cu\-|la\- *|||
 e2) (^d^c d2) z2 | z8 | z2!f! B2 B2 A2 | G4 F4 | z2 !>!e2 !>!e2 !>!d2 | !>!c4"^," B2 B2 | %29
w: * tum, * *||ut non con-|fun- dar,|ut non con-|fun- dar, ut|
 B4 e2 (!>!e2- | e2 d2 c4) | !fermata!B8 |] %32
w: non con- fun\-||dar.|
V:2
 z2 | z8 | z8 | z8 | z4 z2!p! E2 | G3 G"^," E2 (B2- |[M:4/4] BAG)F"^," G2 G2 | A4 G4 | %8
w: ||||Can-|tan- ti- bus or\-|* * * ga- nis Cae-|ci- li-|
"^," F2 B2 B2 A2 | B2 B4 B2 |"^," B2 B4 B2 | (c4- cBGB | A4- A"^,"G GF/E/ | F6) E2 | %14
w: a, Cae- ci- li-|a, Do- mi-|no de- can-|ta\- * * * *||* bat,|
 E4 !fermata!^D4 |!pp! E4 G2 G2 |!<(! (B2 ^A2 B4-!<)! | B2 ^A2)"^," B2 B2 | %18
w: di- cens:|Fi- at cor|me\- * *|* * um im-|
 B2!>(! B2 (B^A!>)! B2) |"^," ^A2 A2 B2 B2 | (B2 e4 d2- | d2 =c2 B4 | A4 G2 A2) | B6 z2 | %24
w: ma- cu- la\- * *|tum, im- ma- cu-|la\- * *|||tum,|
 z2!f! !>!B2 !>!B2 !>!A2 | G4 F4 | z4 z2 !>!B2 | !>!B2 !>!A2 (G4- | G2 FE)"^," ^D2 F2 | %29
w: ut non con-|fun- dar,|ut|non con- fun\-|* * * dar, ut|
 G4 E2 (G2- | G4 A4- | A2 ^GF) !fermata!G4 |] %32
w: non con- fun\-||* * * dar.|
V:3
!p! E2 | G3 G"^," E2 (B2- | BAGF E2) G2 |"^," F2 D2 G3 (F/G/) |"^," A2 A4 A,2 | E2 E2 C2 G,G, | %6
w: Can-|tan- ti- bus or\-|* * * * * ga-|nis, can- tan- ti\- *|bus or- ga-|nis, can- tan- ti- bus|
[M:4/4] A,3 D"^," G,2 (G2- | G2 F2) (E4- | E2 D2) C4 |"^," B,2 (B,2 ^C2) ^D2 |"^," E2 E4 =D2 | %11
w: or- ga- nis Cae\-|* * ci\-|* * li-|a Do\- * mi-|no de- can-|
 (CDEF G4- | G"^,"F FE/D/ E4- | EDCB,) A,4 | B,4 !fermata!B,4 | z4!pp! E4 | G2 F2 B,4 | %17
w: ta\- * * * *||* * * * bat,|di- cens:|Fi-|at cor me-|
"^," F2 F2!<(! G2 G2 | (E2!<)!!>(! D2 ^C2 B,2)!>)! |"^," F2 F2 G2 G2 | (E4 F3 G | A6 G2 | %22
w: um im- ma- cu-|la\- * * *|tum, im- ma- cu-|la\- * *||
 F4 E2 C2) |"^," B,2!f! !>!B2 !>!B2 !>!A2 | (G2 FE ^D4 | E4) ^D4 | z2 !>!E2 !>!E2 !>!=D2 | %27
w: |tum, ut non con-|fun\- * * *|* dar,|ut non con-|
 (C6 B,2 | A,4)"^," B,2 ^D2 | E3 F (GFE=D | C2 B,2 A,4) | !fermata!E8 |] %32
w: fun\- *|* dar, ut|non con- fun\- * * *||dar.|

